icons/svg/linux.svg

﻿<?xml version="1.0" encoding="utf-8"?>
<!DOCTYPE svg PUBLIC "-//W3C//DTD SVG 1.1//EN" "http://www.w3.org/Graphics/SVG/1.1/DTD/svg11.dtd">
<svg xmlns="http://www.w3.org/2000/svg" xmlns:xlink="http://www.w3.org/1999/xlink" version="1.1" baseProfile="full" width="24" height="24" viewBox="0 0 24.00 24.00" enable-background="new 0 0 24.00 24.00" xml:space="preserve">
	<path fill="#000000" fill-opacity="1" stroke-linejoin="round" d="M 13.1786,14.5C 12.5277,15.2594 11.4723,15.2594 10.8214,14.5L 7.44447,10.5234C 7.15898,11.2784 7,12.1169 7,13C 7,14.6686 7.56762,16.1781 8.48378,17.2657C 10.0219,17.367 11.2913,17.9575 11.782,18.9944C 11.8543,18.9981 11.927,19 12.2214,18.9942C 12.7086,17.989 13.951,17.4357 15.4605,17.3309C 16.4093,16.2389 17,14.7022 17,13C 17,12.1169 16.841,11.2784 16.5555,10.5234L 13.1786,14.5 Z M 20,20.75C 20,21.3023 19.3023,22 18.75,22L 13.25,22C 12.6977,22 12,21.3023 12,20.75C 12,21.3023 11.3023,22 10.75,22L 5.25,22C 4.69771,22 3.99999,21.3023 3.99999,20.75C 3.99999,19.4482 4.94205,18.3121 6.30249,17.6488C 5.48253,16.3386 5,14.7337 5,13C 4,15 2.69701,15.5606 2.08711,15C 1.47722,14.4394 1.79327,12.8312 3.10143,11.4081C 3.83994,10.6047 4.98712,9.62225 5.81457,9.25116C 6.13458,8.56296 6.53995,7.93451 7.01454,7.38426L 6.99999,7.00002C 6.99999,4.23859 9.23857,2.00003 12,2.00003C 14.7614,2.00003 17,4.23859 17,7.00002L 16.9854,7.38426C 17.46,7.93451 17.8654,8.56296 18.1854,9.25116C 19.0129,9.62224 20.16,10.6047 20.8986,11.4081C 22.2067,12.8312 22.5228,14.4394 21.9129,15C 21.303,15.5606 20,15 19,13C 19,14.7511 18.5077,16.3707 17.6727,17.6881C 19.0465,18.3286 20,19.4403 20,20.75 Z M 9.87867,9.00001C 9.46446,9.48326 9.46446,10.2668 9.87868,10.75L 11.1287,12.25C 11.5429,12.7333 12.2145,12.7333 12.6287,12.25L 13.8787,10.75C 14.2929,10.2668 14.2929,9.48326 13.8787,9.00001L 9.87867,9.00001 Z M 10,5.25001C 9.44771,5.25001 9,5.89544 9,7.00001C 9,8.10458 9.44771,8.75001 10,8.75001C 10.5523,8.75001 11,8.10458 11,7.00001C 11,5.89544 10.5523,5.25001 10,5.25001 Z M 14,5.25C 13.4477,5.25 13,5.89543 13,7C 13,8.10457 13.4477,8.75 14,8.75C 14.5523,8.75 15,8.10457 15,7C 15,5.89543 14.5523,5.25 14,5.25 Z "/>
</svg>

<svg xmlns="http://www.w3.org/2000/svg" version="1.1" baseProfile="full" width="24" height="24" viewBox="0 0 24.00 24.00" xml:space="preserve"><path fill="#000" fill-opacity="1" stroke-linejoin="round" d="M13.18 14.5c-.652.76-1.708.76-2.36 0l-3.376-3.977C7.16 11.278 7 12.117 7 13c0 1.67.568 3.178 1.484 4.266 1.538.1 2.807.692 3.298 1.728.072.004.145.006.44 0 .487-1.005 1.73-1.558 3.239-1.663C16.41 16.24 17 14.703 17 13c0-.883-.16-1.722-.445-2.477L13.18 14.5zM20 20.75c0 .552-.698 1.25-1.25 1.25h-5.5c-.552 0-1.25-.698-1.25-1.25 0 .552-.698 1.25-1.25 1.25h-5.5C4.698 22 4 21.302 4 20.75c0-1.302.942-2.438 2.302-3.1C5.482 16.34 5 14.733 5 13c-1 2-2.303 2.56-2.913 2-.61-.56-.294-2.17 1.014-3.592.74-.803 1.887-1.786 2.715-2.157.32-.687.725-1.315 1.2-1.866L7 7c0-2.76 2.24-5 5-5s5 2.24 5 5l-.015.384c.475.55.88 1.18 1.2 1.867.828.372 1.975 1.355 2.714 2.158 1.307 1.423 1.623 3.03 1.013 3.592-.61.56-1.913 0-2.913-2 0 1.75-.492 3.37-1.327 4.688C19.047 18.328 20 19.44 20 20.75zM9.88 9c-.416.483-.416 1.267 0 1.75l1.25 1.5c.413.483 1.084.483 1.5 0l1.25-1.5c.413-.483.413-1.267 0-1.75h-4zM10 5.25c-.552 0-1 .645-1 1.75s.448 1.75 1 1.75 1-.645 1-1.75-.448-1.75-1-1.75zm4 0c-.552 0-1 .645-1 1.75s.448 1.75 1 1.75 1-.645 1-1.75-.448-1.75-1-1.75z"/></svg>
